static/images/icons/agency.svg

<svg enable-background="new 0 0 32 32" height="100" viewBox="0 0 32 32" width="100" xmlns="http://www.w3.org/2000/svg"><path d="m4.623 20.623 11.377 11.377 11.377-11.377-11.377-11.376zm11.377 5.35-5.35-5.35 5.35-5.35 5.35 5.35z"/><path d="m13.738 6.869-6.869-6.869-6.869 6.869 6.869 6.869zm-6.869-3.23 3.23 3.23-3.23 3.23-3.23-3.23z"/><path d="m18.262 6.869 6.869 6.869 6.869-6.869-6.869-6.869zm6.869 3.23-3.23-3.23 3.23-3.23 3.23 3.23z"/></svg>

<svg height='100px' width='100px'  fill="#000000" xmlns="http://www.w3.org/2000/svg" xmlns:xlink="http://www.w3.org/1999/xlink" version="1.1" x="0px" y="0px" viewBox="0 0 32 32" enable-background="new 0 0 32 32" xml:space="preserve"><g display="none"><rect x="-289.333" y="-102.656" display="inline" fill="#000000" width="473.333" height="236"></rect></g><g display="none"><g display="inline"><g><rect x="7.956" y="12.579" transform="matrix(0.7071 -0.7071 0.7071 0.7071 -9.8967 17.3542)" width="16.089" height="16.089"></rect></g><g><g><path fill="#000000" d="M16,18.102l2.522,2.522L16,23.145l-2.522-2.522L16,18.102 M16,15.273l-5.35,5.35l5.35,5.35l5.35-5.35      L16,15.273L16,15.273z"></path></g></g></g><g display="inline"><g><g><rect x="2.012" y="2.012" transform="matrix(0.7071 -0.7071 0.7071 0.7071 -2.8452 6.869)" fill="#000000" width="9.714" height="9.714"></rect></g><g><rect x="4.585" y="4.585" transform="matrix(0.7071 -0.7071 0.7071 0.7071 -2.8452 6.869)" fill="#000000" width="4.568" height="4.568"></rect></g></g><g><g><rect x="20.274" y="2.012" transform="matrix(0.7071 -0.7071 0.7071 0.7071 2.5036 19.7822)" width="9.714" height="9.714"></rect></g><g><rect x="22.847" y="4.585" transform="matrix(0.7071 -0.7071 0.7071 0.7071 2.5036 19.7822)" fill="#000000" width="4.568" height="4.568"></rect></g></g></g></g><g><g><path d="M4.623,20.623L16,32l11.377-11.377L16,9.247L4.623,20.623z M16,25.973l-5.35-5.35l5.35-5.35l5.35,5.35L16,25.973z"></path><path d="M13.738,6.869L6.869,0L0,6.869l6.869,6.869L13.738,6.869z M6.869,3.639l3.23,3.23l-3.23,3.23l-3.23-3.23L6.869,3.639z"></path><path d="M18.262,6.869l6.869,6.869L32,6.869L25.131,0L18.262,6.869z M25.131,10.099l-3.23-3.23l3.23-3.23l3.23,3.23L25.131,10.099    z"></path></g></g><g display="none"><g display="inline"><path fill="#000000" d="M16,10.661l9.962,9.962L16,30.586l-9.962-9.962L16,10.661 M16,9.247L4.623,20.623L16,32l11.377-11.377    L16,9.247L16,9.247z"></path></g><g display="inline"><path fill="#000000" d="M16,16.688l3.936,3.936L16,24.559l-3.936-3.936L16,16.688 M16,15.273l-5.35,5.35l5.35,5.35l5.35-5.35    L16,15.273L16,15.273z"></path></g><g display="inline"><path fill="#000000" d="M6.869,1.414l5.455,5.455l-5.455,5.455L1.414,6.869L6.869,1.414 M6.869,0L0,6.869l6.869,6.869l6.869-6.869    L6.869,0L6.869,0z"></path></g><g display="inline"><path fill="#000000" d="M6.869,5.053l1.816,1.816L6.869,8.685L5.053,6.869L6.869,5.053 M6.869,3.639l-3.23,3.23l3.23,3.23    l3.23-3.23L6.869,3.639L6.869,3.639z"></path></g><g display="inline"><path fill="#000000" d="M25.131,1.414l5.455,5.455l-5.455,5.455l-5.455-5.455L25.131,1.414 M25.131,0l-6.869,6.869l6.869,6.869    L32,6.869L25.131,0L25.131,0z"></path></g><g display="inline"><path fill="#000000" d="M25.131,5.053l1.816,1.816l-1.816,1.816l-1.816-1.816L25.131,5.053 M25.131,3.639l-3.23,3.23l3.23,3.23    l3.23-3.23L25.131,3.639L25.131,3.639z"></path></g></g><g display="none"><g display="inline"><rect x="8.455" y="13.079" transform="matrix(0.7071 -0.7071 0.7071 0.7071 -9.8967 17.3542)" fill="#000000" width="15.089" height="15.089"></rect><path fill="#000000" d="M16,10.661l9.962,9.962L16,30.586l-9.962-9.962L16,10.661 M16,9.247L4.623,20.623L16,32l11.377-11.377    L16,9.247L16,9.247z"></path></g><g display="inline"><rect x="12.717" y="17.34" transform="matrix(0.707 -0.7072 0.7072 0.707 -9.897 17.3569)" fill="#000000" width="6.566" height="6.566"></rect><g><path d="M16,16.688l3.936,3.936L16,24.559l-3.936-3.936L16,16.688 M16,15.273l-5.35,5.35l5.35,5.35l5.35-5.35L16,15.273     L16,15.273z"></path></g></g><g display="inline"><rect x="2.512" y="2.512" transform="matrix(0.7071 -0.7071 0.7071 0.7071 -2.8451 6.869)" fill="#000000" width="8.715" height="8.715"></rect><g><path fill="#000000" d="M6.869,1.414l5.455,5.455l-5.455,5.455L1.414,6.869L6.869,1.414 M6.869,0L0,6.869l6.869,6.869     l6.869-6.869L6.869,0L6.869,0z"></path></g></g><g display="inline"><rect x="5.085" y="5.084" transform="matrix(0.7071 -0.7071 0.7071 0.7071 -2.8451 6.869)" fill="#000000" width="3.569" height="3.569"></rect><g><path d="M6.869,5.053l1.816,1.816L6.869,8.685L5.053,6.869L6.869,5.053 M6.869,3.639l-3.23,3.23l3.23,3.23l3.23-3.23L6.869,3.639     L6.869,3.639z"></path></g></g><g display="inline"><rect x="20.774" y="2.512" transform="matrix(0.7071 -0.7071 0.7071 0.7071 2.5037 19.782)" fill="#000000" width="8.715" height="8.715"></rect><g><path fill="#000000" d="M25.131,1.414l5.455,5.455l-5.455,5.455l-5.455-5.455L25.131,1.414 M25.131,0l-6.869,6.869l6.869,6.869     L32,6.869L25.131,0L25.131,0z"></path></g></g><g display="inline"><rect x="23.347" y="5.084" transform="matrix(0.7071 -0.7071 0.7071 0.7071 2.5037 19.782)" fill="#000000" width="3.569" height="3.569"></rect><g><path d="M25.131,5.053l1.816,1.816l-1.816,1.816l-1.816-1.816L25.131,5.053 M25.131,3.639l-3.23,3.23l3.23,3.23l3.23-3.23     L25.131,3.639L25.131,3.639z"></path></g></g></g></svg>
